!!!SOCIAL_FUNCTION:	songs of war
!!!PDT:	1918

Specific Region: Dakotas, Minnesota, Montana, Nebraska
!!!REG: Dakotas and Montana
!!!LING_GROUP: Siouan
!!!LANG: Tone
!!!OTL@ENG: His Horses He Granted Me
!!!ONM: No. 131
**kern
*Imale
*clefF4
*k[f#c#g#]
*M3/4
*>[A,A]
*>norep[A]
*>A
=1!|:
*MM58
16e
8.e
4e
16e
8.d
=2
4B
4A
8A
8A
=3
16d
8.d
8B
[8d
16d]
8.B
=4||
*M2/4
8A
8F#
4A
=5
16E
8.E
8E
8E
=6
8E
[8E
4E]
=7
8E
(16.e
32d)
8e
8e
=8
16e
8.d
8B
8B
=9
16B
8.A
8A
8A
=10||
*M3/4
16d
8.d
8B
8d
16d
8.B
=11||
*M2/4
8A
8F#
4A
=12||
*M3/4
16E
8.E
8E
8E
4E
==:|!
*-
!!!CNT: Native American -- Sioux
!!!MRD: 1911/07//-1914///
!!!OCL: Frances Densmore
!!!YOR1: Teton Sioux Music, Bulletin 61,
!!!YOR2: Bureau of American Ethnology, Smithsonian Institution
!!!PPR: Government Printing Office
!!!PPP: Washington, D.C.
!!!PDT: 1918///
!!!ENC: Craig Stuart Sapp
!!!END: 2002/03/25/
!!!EEV: 2002/03/31/
!!!AGN: War Song/Song of a Typical War Expedition
!!!MPN@@SIO: Waha'chungka-nong'pa
!!!MPN@ENG: Two Shields
!!!TXO: Teton Sioux
!!!MLC: Standing Rock Reservation, South Dakota, United States of America
!!!ARL: 45.9/-100.7#
!!!catalog: Catalogue No. 543
!!!PPG: 341
!!!EFL: 132/245
!!!VTS: 1233983934
